src/assets/images/species.svg

<svg width="36" height="40" viewBox="0 0 36 40" fill="none" xmlns="http://www.w3.org/2000/svg">
<path d="M6.764 3.93602C9.95148 1.38215 13.9156 -0.00648974 18 2.28032e-05C22.25 2.28032e-05 26.156 1.47202 29.236 3.93602L32.142 1.03002L34.97 3.85802L32.064 6.76402C34.6179 9.95151 36.0065 13.9156 36 18V20H0V18C0 13.75 1.472 9.84402 3.936 6.76402L1.03 3.86002L3.858 1.03202L6.764 3.93802V3.93602ZM0 24H36V38C36 38.5305 35.7893 39.0392 35.4142 39.4142C35.0391 39.7893 34.5304 40 34 40H2C1.46957 40 0.960859 39.7893 0.585786 39.4142C0.210714 39.0392 0 38.5305 0 38V24ZM12 14C12.5304 14 13.0391 13.7893 13.4142 13.4142C13.7893 13.0392 14 12.5305 14 12C14 11.4696 13.7893 10.9609 13.4142 10.5858C13.0391 10.2107 12.5304 10 12 10C11.4696 10 10.9609 10.2107 10.5858 10.5858C10.2107 10.9609 10 11.4696 10 12C10 12.5305 10.2107 13.0392 10.5858 13.4142C10.9609 13.7893 11.4696 14 12 14ZM24 14C24.5304 14 25.0391 13.7893 25.4142 13.4142C25.7893 13.0392 26 12.5305 26 12C26 11.4696 25.7893 10.9609 25.4142 10.5858C25.0391 10.2107 24.5304 10 24 10C23.4696 10 22.9609 10.2107 22.5858 10.5858C22.2107 10.9609 22 11.4696 22 12C22 12.5305 22.2107 13.0392 22.5858 13.4142C22.9609 13.7893 23.4696 14 24 14Z" fill="url(#paint0_linear_2_1597)"/>
<defs>
<linearGradient id="paint0_linear_2_1597" x1="-3.38824" y1="-7.93105" x2="40.9891" y2="-1.27536" gradientUnits="userSpaceOnUse">
<stop stop-color="#9DFE00"/>
<stop offset="1" stop-color="#14D9E6"/>
</linearGradient>
</defs>
</svg>

<svg width="36" height="40" fill="none" xmlns="http://www.w3.org/2000/svg"><path d="M6.764 3.936A17.924 17.924 0 0 1 18 0c4.25 0 8.156 1.472 11.236 3.936l2.906-2.906 2.828 2.828-2.906 2.906A17.924 17.924 0 0 1 36 18v2H0v-2c0-4.25 1.472-8.156 3.936-11.236L1.03 3.86l2.828-2.828 2.906 2.906v-.002ZM0 24h36v14a2 2 0 0 1-2 2H2a2 2 0 0 1-2-2V24Zm12-10a2 2 0 1 0 0-4 2 2 0 0 0 0 4Zm12 0a2 2 0 1 0 0-4 2 2 0 0 0 0 4Z" fill="url(#a)"/><defs><linearGradient id="a" x1="-3.388" y1="-7.931" x2="40.989" y2="-1.275" gradientUnits="userSpaceOnUse"><stop stop-color="#9DFE00"/><stop offset="1" stop-color="#14D9E6"/></linearGradient></defs></svg>
